!!!COM: Claude Debussy
!!!CNT: Francais
!!!TXO: Francais
!!!OPR: Trois Me\lodies
!!!ONM: No. 1
!!!OTL: La mer est Plus Belle
!!!LYR: Paul Verlaine
!!!ENC: Jacob Pegg
!!!YOR: Claude Debussy: Songs 1880-1904, Edited by Rita Benton
!!!YOR: New York: Dover publications, inc., 1981
!!!YOR: ISBN 0-486-24131-9
!!!ODT: 1891/
!!NB: Vocal melody and text only encoded.
!!NB: First instance of melodic material only encoded.
**kern	**silbe
*clef G2	*
*k[f#]	*
*M4/4	*
*MM[allegro]	*
!! anime
!! created: 7/3/03 12:33
!! last edited: 7/17/03 14:45
!! time (min) : input notes 11, words 9.  check : notes 6, words 5.
!! total edit time: about 34 min.
=1	=1
1r	.
=2	=2
2r	.
2r	.
=3	=3
4r	.
{4f#	{La
4b	mer
8f#	est
8f#	plus
=4	=4
[2a	bel-
8a]}	-le}
{8a	{Que
12a	les
12g	ca-
12a	-the/-
=5	=5
2b	-dra-
2f#}	-les,}
=6	=6
1r	.
=7	=7
{8e	{Nour-
8e	-ri-
8e	-ce
8e	fi-
4d	-de\-
8B}	-le,}
{8e	{Ber-
=8	=8
12f#	-ceu-
12e	-se
12f#	de
2b	ra\-
8g}	-les,}
{8b	{La
=9	=9
2dd	mer
4dd	sur
4dd	qui
=10	=10
4.b}	prie}
{8b	{La
4b	Vier-
8b	-ge
8b	Ma-
=11	=11
[2b	-ri-
4b]}	-e!}
4r	.
=12	=12
1r	.
=13	=13
4r	.
{4c	{El-
4e-	-le a
8c	tous
8c	les
=14	=14
8B}	dons,}
{8B	{Ter-
12c	-ri-
12c	-bles
12c	et
4e-}	doux.}
4r	.
=15	=15
{8d	{J'en-
8d	-tends
8d#	ses
8d#	par-
4f#}	-dons}
{4d#	{Gron-
=16	=16
12dn	-der
12dn	ses
12f#	cour-
2a#}	-roux.}
{8d#	{Cet-
8f#	-te im-
=17	=17
8a#	-men-
8dd#	-si-
[4dd#	-te/-
8dd#]	|
8cc#	n'a
12a#	rien
12g	d'en-
12f#	-te^-
=18	=18
1f#}	-te/.}
=19	=19
*k[f#c#g#d#a#e#]	*
4r	.
{2a#	{Oh!
12a#	si
12a#	pa-
12a#	-ti-
=20	=20
4a#	-en-
4e}	-te,}
{8e#	{Me^-
8e#	-me
8g#	quand
8e#	me/-
=21	=21
4d#	-chan-
4c#}	-te!}
2r	.
=22	=22
2r	.
{8c#	{Un
8e	souf-
8g#	-fle a-
8a#	-mi
=23	=23
4cc#	han-
4b}	-te}
4r	.
{4cc#	{La
=24	=24
4dd#	va-
4cc#}	-gue,}
8r	.
{4b	{et
8g#	nous
=25	=25
4f#	chan-
4e}	-te;}
2r	.
=26	=26
4r	.
{8e	{<<Vous,
8e	sans
8dn	es-
8dn	-pe/-
8dn	-ran-
16dn}	-ce,}
16r	.
=27	=27
4r	.
{4e	{Mou-
4gn	-rez
8gn	sans
8gn	souf-
=28	=28
[2e	-fran-
4e]}	-ce!>>}
4r	.
=29	=29
1r	.
=30	=30
*k[f#]	*
4r	.
{4f#	{Et
4b	puis,
8f#	sous
8f#	les
=31	=31
2a}	cieux}
{(8a	{Qui
8g	s'y
12a	ri-
12fn	-ent
12a)	plus
=32	=32
2b}	clairs,}
4r	.
{(4b	{Elle
=33	=33
4ee)	a
8ee	des
8ee	airs
2dd#}	bleus,}
=34	=34
{(4ddn	{Ro-
4b)}	-ses,}
6r	.
{6g#	{gris
6b	et
=35	=35
2g#}	verts…}
2r	.
=36	=36
4r	.
{4b	{Plus
4ee	bel-
8dd#	-le
8ccn	que
=37	=37
2b}	tous,}
4r	.
{4g#	{Meil-
=38	=38
4g#	-leu-
2f#	-re
4d#	que
=39	=39
1B}	nous!}
=40	=40
1r	.
*-	*-
